X:1
T:Signor ferma deh ferma
T:Giovanni Pietro Biandra
T:Source : Madrigaletti a 1, 2 e 3 voci. Libro primo---Venezia---B.Magni(Gardano)---1626. Editor : André Vierendeels (05/03/15). 
T:Note : editorial accidentals above the staff Original clefs : C1, F4
T:Signor ferma deh ferma
C:Giovanni Pietro Biandra
%%score 1 2
L:1/8
Q:1/4=120
M:4/4
K:F
V:1 treble nm="Canto" snm="C"
V:2 bass nm="BC" snm="BC"
V:1
 z2 G2 G4- | G2 B3 B A2 | cB/A/ G/F/E ^F2 F2 | z2 d2 _e4- | eAAA TA4 | A2 =B2 c4 | T^c2 d2 e3 e | %7
w: Si- gnor|_ fer- ma deh|fer- * * * * * * ma,|gia veg-|* gio la pie- ta-|te can- gia|_ s'in cru- del-|
 Te4 d4 | z2 A3 A G2- | GG A2 cB AG | A4 z DEF | G/D/E/F/ G/A/B/c/ d/A/B/c/ d/c/c/B/4A/4 | %12
w: ta- de|è l'in- giu-|* sto mo- ri- * * *|re, in- gius- sto|sde- * * * * * * * * * * * * * * * *|
 B/A/A/G/4^F/4 G/D/E/F/ G/A/B/A/ G/F/E/D/ | E3 E TE4 | D8 | z2 GA B4- | B2 =BB c4 | ^c4 z dAA | %18
w: |gni et i-|re,|ec- co scor-|* g'il do- lo-|re,- ch'es- ta- la|
 B/A/G/A/ B/c/d/e/ f_eed | dTc cB/A/ B/A/B/c/ A2 | A2 TG2 A4 | z4 z2 d2- | d2 ce c3 =B | %23
w: l'al- * * * * * * * ma in un do-|glio- * * * * * * * * so'a-|mo- * re,|tan-|* to pie- to- so|
 =B2 B2 z2 ^G2 | A=Bcd ef g2- | g2 f2 Te4 | d2 D2 G4 | z EFG ABcA | G2 G2 z2 B2- | B2 BB B3 A | %30
w: se- i ch'an-|cor per- do- ni gli'em- pi fal-|* li mi-|ei'e fa- i,|de gli'oc- chi i- due so- le|stil- le, cam-|* bio del san- gue|
 B2 d2 c/d/_e/d/ c/B/A/G/ | A4 G4 | z2 c/B/A/G/ A2 d/c/B/A/ | BccB B2 B2 | z2 c4 cc | c3 =B c4 | %36
w: tuo con mil- * * * l'e _ _ _|mil- le,|O _ _ _ che, O _ _ _|che pie- to- sa'u- su- ra,|ren- der per|po- co'as- sai|
 z4 z2 c2- | cB/A/ G/A/B/G/ A/B/G/A/ F/E/D/E/ | F/G/A/B/ c2- c/d/B/c/ A/B/G/A/ | ^F2 GG A4 | G8 | %41
w: fuor|_ _ _ _ _ _ _ _ _ _ _ _ _ _ _||* di mi- su-|ra,|
 d/_e/f/e/ d/e/c/d/ B/c/d/c/ B/c/A/B/ | G/A/B/G/ A/B/c/d/ _e/d/c/B/ c/B/A/G/ | ^F2 GG TA4 | G8 |] %45
w: fuor _ _ _ _ _ _ _ _ _ _ _ _ _ _ _|_ _ _ _ _ _ _ _ _ _ _ _ _ _ _ _|* di- mi- su-|ra.|
V:2
 G,4 G,2 F,2 | _E,2 D,2 =E,2 F,2 | C,4 D,4 | =B,,4 C,2 D,2 | _E,2 C,2 D,4 | D,4 C,2 B,,2 | %6
 A,,2 G,,4 ^F,,2 | G,,2 A,,2 D,2 E,2 | ^F,4 G,4 | C,4 _E,4 | D,2 C,2 B,,2 A,,2 | G,,4 ^F,,4 | %12
 G,,4 B,,4 | A,,2 G,,2 A,,4 | D,8 | G,6 F,2 | _E,2 D,2 TC,2 B,,2 | A,,2 G,,2 ^F,,4 | G,,4 D,2 C,2 | %19
 B,,2 A,,2 G,,2 F,,2 | B,,4 A,,4 | =B,,2 C,2 D,4 | E,8 | E,4 E,2 E,2 | F,2 E,2 D,2 C,2 | %25
 B,,4 G,,2 A,,2 | D,4 C,2 B,,2 | A,,2 G,,2 F,,2 A,,2 | C,4 D,4 | _E,2 D,2 C,4 | B,,4 C,2 _E,2 | %31
 C,2 D,2 G,,2 =B,,2 | C,2 E,2 F,2 ^F,2 | G,2 F,2 B,,2 C,2 | D,2 E,2 F,2 E,2 | F,2 G,2 C,2 B,,2 | %36
 A,,2 G,,2 F,,4 | E,,4 F,,4 | F,2 E,2 D,4 | D,8 | G,,8 | B,,8 | C,8 | D,8 | G,,8 |] %45

